X: 3
T: The Green Fields Of Rossbeigh
R: reel
M: 4/4
L: 1/8
K: Edor
A|BE~E2 BAFB|ABde fded|BE~E2 BAFA|BFAF E2FA|~B3d BAFB|ABde fded|BE~E2 BAFA|BFAF E3:|z|Bdef g2fe|dB~B2 dBAd|Bdef gefe|dBAF E2ef|~g3a gfeg|f2eg fedB|ABde fdfe|dBAF E3:|


Tune 322	Setting 13093

